X:200
T:Tar Road To Sligo, The
M:6/8
L:1/8
R:Jig
K:D
e | fdB Bcd | ecA BAG | FAA ABc | dcd efg |
|fdB Bcd | ecA BAG | FAA Aag | fdc d2 :|
B | Adf Adf | gfg efg | afd dcd | Bed cBA |
|Adf Adf | gfg efg | afd bge | edc d2 B |
|Adf Adf | gfg efg | afd dcd | Bed cBA |
|fdB gec | afd bge | ~a3 bge | edc d2 ||
